packages/kaspersky-hexa-ui-icons/src/iconsSVGs/64x42/FlagCl.svg

<svg width="64" height="42" viewBox="0 0 64 42" fill="none" xmlns="http://www.w3.org/2000/svg">
<g clip-path="url(#clip0_37941_2221)">
<rect width="64" height="42" rx="5" fill="white"/>
<rect x="0.5" y="0.5" width="63" height="41" rx="4.5" stroke="#F5F5F5"/>
<path fill-rule="evenodd" clip-rule="evenodd" d="M0 42H64V21H0V42Z" fill="#DA281B"/>
<rect width="21" height="21" fill="#0033A0"/>
<path fill-rule="evenodd" clip-rule="evenodd" d="M10.5 12.84L6.97329 15.3541L8.27453 11.2231L4.79366 8.6459L9.12458 8.6069L10.5 4.5L11.8754 8.6069L16.2063 8.6459L12.7255 11.2231L14.0267 15.3541L10.5 12.84Z" fill="white"/>
</g>
<defs>
<clipPath id="clip0_37941_2221">
<rect width="64" height="42" rx="5" fill="white"/>
</clipPath>
</defs>
</svg>

<svg xmlns="http://www.w3.org/2000/svg" width="64" height="42" fill="none" viewBox="0 0 64 42"><g clip-path="url(#a)"><rect width="64" height="42" fill="#fff" rx="5"/><rect width="63" height="41" x="1" y="1" stroke="#f5f5f5" rx="5"/><path fill="#da281b" fill-rule="evenodd" d="M0 42h64V21H0z" clip-rule="evenodd"/><path fill="#0033a0" d="M0 0h21v21H0z"/><path fill="#fff" fill-rule="evenodd" d="m10.5 12.84-3.5267 2.5141 1.3012-4.131-3.4808-2.5772 4.3309-.039L10.5 4.5l1.3754 4.1069 4.3309.039-3.4808 2.5772 1.3012 4.131z" clip-rule="evenodd"/></g><defs><clipPath id="a"><rect width="64" height="42" fill="#fff" rx="5"/></clipPath></defs></svg>
